material/.icons/material/molecule-co2.svg

<svg xmlns="http://www.w3.org/2000/svg" viewBox="0 0 24 24"><path d="M5 7a2 2 0 00-2 2v6a2 2 0 002 2h3v-2H5V9h3V7H5m6 0a2 2 0 00-2 2v6a2 2 0 002 2h2a2 2 0 002-2V9a2 2 0 00-2-2h-2m0 2h2v6h-2V9m5 1.5V12h3v1.5h-1.5A1.5 1.5 0 0016 15v3h4.5v-1.5h-3V15H19a1.5 1.5 0 001.5-1.5V12a1.5 1.5 0 00-1.5-1.5h-3z"/></svg>

<?xml version="1.0" encoding="UTF-8"?><!DOCTYPE svg PUBLIC "-//W3C//DTD SVG 1.1//EN" "http://www.w3.org/Graphics/SVG/1.1/DTD/svg11.dtd"><svg xmlns="http://www.w3.org/2000/svg" xmlns:xlink="http://www.w3.org/1999/xlink" version="1.1" id="mdi-molecule-co2" width="24" height="24" viewBox="0 0 24 24"><path d="M5,7A2,2 0 0,0 3,9V15A2,2 0 0,0 5,17H8V15H5V9H8V7H5M11,7A2,2 0 0,0 9,9V15A2,2 0 0,0 11,17H13A2,2 0 0,0 15,15V9A2,2 0 0,0 13,7H11M11,9H13V15H11V9M16,10.5V12H19V13.5H17.5A1.5,1.5 0 0,0 16,15V18H20.5V16.5H17.5V15H19A1.5,1.5 0 0,0 20.5,13.5V12A1.5,1.5 0 0,0 19,10.5H16Z" /></svg>
